X:62
T:Karen Concern
M:C|
L:1/8
C: Paul Gitlitz 2003
R:Reel
B:Hunters and Gatherers 
K:A
AB|"A"cBAc "E"BAGF|"A"E3F E4|"F#m"FEFG A2AB|"C#m"cBAc "E"B2AB|!
"A"cBAc "E"BAGF|"A"E3F E4|"F#m"FCFG A2Ac|1"E"BAGB "A"A2:|2"E"BAGB "A"A2Ac|!
|:"D"[d4f4]dcBA|"C#m"c3Ec4|"F#m"[c3f3]ef2fg|agfef2 "E"e2|!
"D"d4dcBA|"C#m"c3ec4|"F#m"FCFG "C#m"ABcA|1"E" BAGB "A"A4:|2"E" BAGB "A"A2|]
